packages/ui/src/assets/speed.svg

<svg width="28" height="22" viewBox="0 0 28 22" fill="none" xmlns="http://www.w3.org/2000/svg">
<path d="M21.8996 6.30884C21.7385 6.30888 21.5796 6.31806 21.4224 6.33306C21.0066 4.97413 19.7429 3.98575 18.2478 3.98608C17.6715 3.98621 17.1298 4.13354 16.6577 4.39193C15.9944 2.42084 14.1349 0.999504 11.9403 1C9.19039 1.00062 6.96166 3.2303 6.96228 5.98019C6.96232 6.20767 6.98294 6.42985 7.01254 6.64922L0.812649 9.26302V13.8092L6.96596 16.241C6.96592 16.2509 6.96451 16.2604 6.96451 16.2703C6.96513 19.0202 9.19482 21.249 11.9447 21.2483C13.9358 21.2479 15.6486 20.0761 16.4448 18.3871C16.9649 18.7253 17.5844 18.9235 18.251 18.9234C19.8638 18.923 21.2066 17.7721 21.5062 16.2471C21.6371 16.2574 21.7683 16.267 21.9018 16.267C24.6517 16.2664 26.8804 14.0367 26.8798 11.2868C26.8792 8.53695 24.6495 6.30826 21.8996 6.30884Z" fill="#FFE8FF"/>
<path d="M22.0913 6.30884C21.9302 6.30888 21.7712 6.31806 21.6141 6.33306C21.1982 4.97413 19.9345 3.98575 18.4394 3.98608C17.8632 3.98621 17.3215 4.13354 16.8493 4.39193C16.186 2.42084 14.3266 0.999504 12.1319 1C9.38204 1.00062 7.1533 3.2303 7.15392 5.98019C7.15396 6.20767 7.17459 6.42985 7.20418 6.64922L5.56016 7.34879C6.69075 7.93963 7.56618 8.95218 7.97868 10.178C8.4509 9.91957 8.99255 9.77223 9.5688 9.7721C11.0639 9.77177 12.3276 10.7602 12.7434 12.1191C12.9006 12.1041 13.0595 12.0949 13.2206 12.0949C15.9705 12.0943 18.2002 14.323 18.2008 17.0729C18.201 17.7063 18.0782 18.3098 17.8626 18.8671C18.0515 18.9007 18.2441 18.9234 18.4427 18.9234C20.0555 18.923 21.3983 17.7721 21.6979 16.2472C21.8288 16.2574 21.9599 16.2671 22.0935 16.2671C24.8434 16.2665 27.0721 14.0368 27.0715 11.2869C27.0709 8.537 24.8412 6.30826 22.0913 6.30884Z" fill="#FFE8FF"/>
<path d="M1.22594 13.7169L7.1576 16.241C7.15756 16.2509 7.15615 16.2604 7.15615 16.2703C7.15673 19.0202 9.38646 21.249 12.1363 21.2483C14.1274 21.2479 15.8402 20.0761 16.6364 18.3871C17.1565 18.7253 17.776 18.9235 18.4426 18.9234C20.0554 18.923 21.3982 17.7721 21.6978 16.2471C21.8287 16.2574 21.9599 16.267 22.0934 16.267C24.8433 16.2664 27.072 14.0367 27.0714 11.2868C27.0708 8.53695 24.8412 6.30826 22.0913 6.30884C21.9302 6.30888 21.7712 6.31806 21.6141 6.33306C21.1982 4.97413 19.9345 3.98575 18.4394 3.98608C17.8632 3.98621 17.3215 4.13354 16.8493 4.39193C16.186 2.42084 14.3266 0.999504 12.1319 1C9.38204 1.00062 7.1533 3.2303 7.15392 5.98019C7.15396 6.20767 7.17459 6.42985 7.20418 6.64922L1.22594 9.19313" stroke="#FFE8FF" stroke-miterlimit="10" stroke-linecap="round" stroke-linejoin="round"/>
<path d="M1.22594 6.78324L4.94552 5.13009C4.94552 5.13009 4.53224 3.06365 6.59867 1.82379" stroke="#FFE8FF" stroke-miterlimit="10" stroke-linecap="round" stroke-linejoin="round"/>
<path d="M1.22594 15.8757L4.94552 17.5288C4.94552 17.5288 4.53224 19.5953 6.59867 20.8351" stroke="#FFE8FF" stroke-miterlimit="10" stroke-linecap="round" stroke-linejoin="round"/>
</svg>

<svg width="28" height="22" fill="none" xmlns="http://www.w3.org/2000/svg"><path d="M21.9 6.309c-.162 0-.32.01-.478.024a3.32 3.32 0 0 0-4.764-1.941A4.978 4.978 0 0 0 6.962 5.98c0 .228.02.45.05.67l-6.2 2.613v4.546l6.154 2.432-.001.03c0 2.75 2.23 4.978 4.98 4.977a4.975 4.975 0 0 0 4.5-2.86 3.32 3.32 0 0 0 5.061-2.14c.131.01.262.019.396.019a4.98 4.98 0 1 0-.002-9.958Z" fill="#FFE8FF"/><path d="M22.091 6.309c-.16 0-.32.01-.477.024a3.32 3.32 0 0 0-4.765-1.941A4.978 4.978 0 0 0 7.154 5.98c0 .228.02.45.05.67l-1.644.699a4.998 4.998 0 0 1 2.419 2.829 3.32 3.32 0 0 1 4.765 1.941 4.98 4.98 0 0 1 5.457 4.954c0 .633-.123 1.237-.338 1.794a3.3 3.3 0 0 0 .58.056 3.32 3.32 0 0 0 3.255-2.676c.13.01.262.02.395.02a4.98 4.98 0 1 0-.002-9.958Z" fill="#FFE8FF"/><path d="m1.226 13.717 5.932 2.524-.002.03c0 2.75 2.23 4.978 4.98 4.977a4.975 4.975 0 0 0 4.5-2.86 3.32 3.32 0 0 0 5.061-2.14c.132.01.263.019.396.019a4.98 4.98 0 1 0-.479-9.934 3.32 3.32 0 0 0-4.765-1.941A4.978 4.978 0 0 0 7.154 5.98c0 .228.02.45.05.67L1.226 9.192M1.226 6.783l3.72-1.653s-.414-2.066 1.653-3.306M1.226 15.876l3.72 1.653s-.414 2.066 1.653 3.306" stroke="#FFE8FF" stroke-miterlimit="10" stroke-linecap="round" stroke-linejoin="round"/></svg>
